X: 13
T:Dreaming
% Nottingham Music Database
S:Bryon Bonnett
M:3/4
L:1/4
K:G
D|"G"B3/2^A/2B|"B7"ABA|"Em"G3/2F/2G|"Cm"G_EC|"G"B,2B|"G"BAG|"Am"Ace|"D7"d^c=c|
"G"B3/2^A/2B|"B7"ABA|"Em"G3/2F/2G|"Cm"G_EC|"G"B,3/2D/2B|"D7"B2A|"G"G3|"G7"GAB\
||
"C"c3/2B/2c|"C"edc|"G"B3/2^A/2B|"G"dcB|"A"A3/2B/2^c|"A7"AB^c|"D"d3|"D7"d2D|
"G"B3/2^A/2B|"B7"ABA|"Em"G3/2F/2G|"Cm"G_EC|"G"B,3/2D/2B|"D7"B2A|"G"G3|G2||
D|G2G|F2F|E2G|cGA|G2B|dcB|A2E|DEF|
"G"B3/2^A/2B|"B7"ABA|"Em"G3/2F/2G|"Cm"G_EC|GBd|def|g=fd|
Bcd|e2e|cde|d2d|Bcd|^ceg|age|dcA|
FAc|d2G|F2F|E2G|cGA|G2B|dcA|Bde|G2||


